; generated by PrusaSlicer 2.7.2+win64 on 2024-01-15 at 10:00:00 UTC
; external perimeters extrusion width = 0.45mm
; perimeters extrusion width = 0.45mm
; infill extrusion width = 0.45mm
; solid infill extrusion width = 0.45mm
; top infill extrusion width = 0.40mm
; first layer extrusion width = 0.42mm
; filament_type = PETG
; nozzle_diameter = 0.4
M862.3 P "MK3S" ; printer model check
M862.1 P0.4 ; nozzle diameter check
M73 P0 R187
M73 Q0 S187
M201 X1000 Y1000 Z1000 E5000 ; sets maximum accelerations, mm/sec^2
M203 X200 Y200 Z12 E120 ; sets maximum feedrates, mm/sec
M204 S1250 ; sets acceleration (S) and retract acceleration (R)
M205 X8.00 Y8.00 Z0.40 E4.50 ; sets the jerk limits, mm/sec
M104 S230 ; set extruder temp
M140 S85 ; set bed temp
M190 S85 ; wait for bed temp
M109 S230 ; wait for extruder temp
M900 K0.05 ; linear advance
G28 ; home all
G90 ; absolute coords
G21 ; mm units
M83 ; relative extrusion
;LAYER_CHANGE
;Z:0.200
;HEIGHT:0.200
;BEFORE_LAYER_CHANGE
G92 E0.0
;AFTER_LAYER_CHANGE
;TYPE:Skirt/Brim
;WIDTH:0.42
G1 Z0.200 F600
G1 X100.000 Y100.000 F3000
G1 X110.000 Y100.000 E0.50000 F1500
G1 X110.000 Y110.000 E0.50000 F1500
G1 X100.000 Y110.000 E0.50000 F1500
G1 X100.000 Y100.000 E0.50000 F1500
;WIPE_START
G1 X100.500 Y100.500 E-0.80000 F3600
G1 X101.000 Y101.000 F3600
;WIPE_END
G92 E0.0
;LAYER_CHANGE
;Z:0.500
;HEIGHT:0.300
;BEFORE_LAYER_CHANGE
G92 E0.0
;AFTER_LAYER_CHANGE
;TYPE:Perimeter
;WIDTH:0.45
G1 Z0.500 F600
G1 X50.000 Y50.000 F3000
G1 X60.000 Y50.000 E0.40000 F1800
G1 X60.000 Y60.000 E0.40000 F1800
G1 X50.000 Y60.000 E0.40000 F1800
G1 X50.000 Y50.000 E0.40000 F1800
;TYPE:Infill
;WIDTH:0.45
G1 X52.000 Y52.000 F3000
G1 X58.000 Y58.000 E0.60000 F2400
G1 X52.000 Y58.000 F3000
G1 X58.000 Y52.000 E0.60000 F2400
G92 E0.0
;WIPE_START
G1 X57.000 Y51.000 E-0.80000 F3600
G1 X56.000 Y50.000 F3600
;WIPE_END
M73 P50 R93
M73 Q50 S93
M900 K0.04
M204 S1500
;LAYER_CHANGE
;Z:0.800
;HEIGHT:0.300
;BEFORE_LAYER_CHANGE
G92 E0.0
;AFTER_LAYER_CHANGE
;TYPE:Perimeter
;WIDTH:0.45
G1 Z0.800 F600
G1 X50.000 Y50.000 F3000
G1 X60.000 Y50.000 E0.40000 F1800
G1 X60.000 Y60.000 E0.40000 F1800
G1 X50.000 Y60.000 E0.40000 F1800
G1 X50.000 Y50.000 E0.40000 F1800
;TYPE:Solid Infill
;WIDTH:0.45
G1 X51.000 Y51.000 F3000
G1 X59.000 Y51.000 E0.55000 F2200
G1 X59.000 Y59.000 E0.55000 F2200
G1 X51.000 Y59.000 E0.55000 F2200
G1 X51.000 Y51.000 E0.55000 F2200
M73 P100 R0
M104 S0 ; turn off extruder
M140 S0 ; turn off bed
