; generated by PrusaSlicer 2.9.4 on 2026-03-05 at 14:46:08 UTC

; 

; external perimeters extrusion width = 0.45mm
; perimeters extrusion width = 0.45mm
; infill extrusion width = 0.45mm
; solid infill extrusion width = 0.45mm
; top infill extrusion width = 0.40mm
; first layer extrusion width = 0.42mm

M73 P0 R49
M73 Q0 S49
M201 X1000 Y1000 Z200 E5000 ; sets maximum accelerations, mm/sec^2
M203 X200 Y200 Z12 E120 ; sets maximum feedrates, mm / sec
M204 S1250 T1250 ; sets acceleration (S) and retract acceleration (R), mm/sec^2
M205 X8.00 Y8.00 Z0.40 E4.50 ; sets the jerk limits, mm/sec
M205 S0 T0 ; sets the minimum extruding and travel feed rate, mm/sec

; printing object Zugstab_DIN_EN_ISO_3167_150mm id:0 copy 0
; stop printing object Zugstab_DIN_EN_ISO_3167_150mm id:0 copy 0

;TYPE:Custom
M862.3 P "MK3S" ; printer model check
M862.1 P0.4 ; nozzle diameter check
M115 U3.10.1 ; tell printer latest fw version
G90 ; use absolute coordinates
M83 ; extruder relative mode
M104 S230 ; set extruder temp
M140 S85 ; set bed temp
M190 S85 ; wait for bed temp
M109 S230 ; wait for extruder temp
G28 W ; home all without mesh bed level
G80 ; mesh bed leveling
G1 Z0.2 F720
G1 Y-3 F1000 ; go outside print area
G92 E0
G1 X60 E9 F1000 ; intro line
G1 X100 E12.5 F1000 ; intro line
G92 E0
M221 S95

; Don't change E values below. Excessive value can damage the printer.
M907 E430 ; set extruder motor current
G21 ; set units to millimeters
G90 ; use absolute coordinates
M83 ; use relative distances for extrusion
M900 K0.08 ; Filament gcode LA 1.5
M900 K45 ; Filament gcode LA 1.0
M107
;LAYER_CHANGE
;Z:0.2
;HEIGHT:0.2
G1 E-1 F2100
G1 Z.4 F720
G1 X49.235 Y92.949 F10800
G1 Z.2 F720
G1 E1 F2100
M204 S800
;TYPE:Skirt/Brim
;WIDTH:0.42
G1 F1200
G1 X50 Y92.811 E.02437
G1 X200 Y92.811 E4.70314
G1 X201.248 Y93.202 E.04101
G1 X202.051 Y94.235 E.04102
G1 X202.189 Y95 E.02437
G1 X202.189 Y115 E.62709
G1 X201.798 Y116.248 E.04101
G1 X200.765 Y117.051 E.04102
G1 X200 Y117.189 E.02437
G1 X50 Y117.189 E4.70314
G1 X48.752 Y116.798 E.04101
M73 P0 R48
G1 X47.949 Y115.765 E.04102
G1 X47.811 Y115 E.02437
G1 X47.811 Y95 E.62709
G1 X48.202 Y93.752 E.04101
G1 X49.188 Y92.986 E.03915
M204 S1000
;WIPE_START
G1 F8640
G1 X49.235 Y92.949 E-.01381
G1 X50 Y92.811 E-.17949
G1 X53.494 Y92.811 E-.8067
;WIPE_END
G1 Z.4 F720
; printing object Zugstab_DIN_EN_ISO_3167_150mm id:0 copy 0
G1 X50.787 Y95.787 F10800
G1 Z.2 F720
G1 E1 F2100
M204 S800
;TYPE:Perimeter
;WIDTH:0.419999
G1 F1200
G1 X69.75 Y95.787 E.59457
G1 X71.18 Y96.8 E.05495
G1 X72.933 Y97.837 E.06386
G1 X74.764 Y98.726 E.06382
G1 X76.663 Y99.461 E.06385
G1 X78.615 Y100.039 E.06383
G1 X80.608 Y100.454 E.06383
G1 X82.629 Y100.704 E.06385
G1 X84.647 Y100.787 E.06333
G1 X165.353 Y100.787 E2.53048
G1 X167.371 Y100.704 E.06333
M73 P1 R48
M73 Q1 S49
G1 X169.392 Y100.454 E.06385
G1 X171.385 Y100.039 E.06383
G1 X173.337 Y99.461 E.06383
G1 X175.236 Y98.726 E.06385
G1 X177.067 Y97.837 E.06382
G1 X178.839 Y96.787 E.06458
G1 X180.25 Y95.787 E.05422
G1 X199.213 Y95.787 E.59457
G1 X199.213 Y114.213 E.57773
G1 X180.25 Y114.213 E.59457
G1 X178.82 Y113.2 E.05495
G1 X177.067 Y112.163 E.06386
G1 X175.236 Y111.274 E.06382
G1 X173.337 Y110.539 E.06385
G1 X171.385 Y109.961 E.06383
G1 X169.392 Y109.546 E.06383
G1 X167.371 Y109.296 E.06385
G1 X165.353 Y109.213 E.06333
G1 X84.647 Y109.213 E2.53048
G1 X82.629 Y109.296 E.06333
M73 Q1 S48
G1 X80.608 Y109.546 E.06385
G1 X78.615 Y109.961 E.06383
G1 X76.663 Y110.539 E.06383
G1 X74.764 Y111.274 E.06385
G1 X72.933 Y112.163 E.06382
G1 X71.161 Y113.213 E.06458
G1 X69.75 Y114.213 E.05422
G1 X50.787 Y114.213 E.59457
G1 X50.787 Y95.847 E.57585
M204 S1000
G1 X50.41 Y95.41 F10800
M204 S800
;TYPE:External perimeter
G1 F1200
G1 X69.87 Y95.41 E.61015
G1 X71.386 Y96.484 E.05825
G1 X73.111 Y97.504 E.06283
G1 X74.915 Y98.38 E.06288
G1 X76.784 Y99.104 E.06284
G1 X78.707 Y99.673 E.06288
G1 X80.67 Y100.082 E.06287
G1 X82.66 Y100.328 E.06287
G1 X84.654 Y100.41 E.06257
G1 X165.346 Y100.41 E2.53004
G1 X167.34 Y100.328 E.06257
G1 X169.33 Y100.082 E.06287
G1 X171.293 Y99.673 E.06287
G1 X173.216 Y99.104 E.06288
G1 X175.085 Y98.38 E.06284
G1 X176.889 Y97.504 E.06288
G1 X178.621 Y96.479 E.0631
G1 X180.13 Y95.41 E.05798
G1 X199.59 Y95.41 E.61015
G1 X199.59 Y114.59 E.60137
G1 X180.13 Y114.59 E.61015
G1 X178.614 Y113.516 E.05825
G1 X176.889 Y112.496 E.06283
G1 X175.085 Y111.62 E.06288
G1 X173.216 Y110.896 E.06284
G1 X171.293 Y110.327 E.06288
G1 X169.33 Y109.918 E.06287
G1 X167.34 Y109.672 E.06287
G1 X165.346 Y109.59 E.06257
G1 X84.654 Y109.59 E2.53004
G1 X82.66 Y109.672 E.06257
G1 X80.67 Y109.918 E.06287
G1 X78.707 Y110.327 E.06287
G1 X76.784 Y110.896 E.06288
G1 X74.915 Y111.62 E.06284
G1 X73.111 Y112.496 E.06288
G1 X71.379 Y113.521 E.0631
G1 X69.87 Y114.59 E.05798
G1 X50.41 Y114.59 E.61015
G1 X50.41 Y95.47 E.59949
M204 S1000
;WIPE_START
G1 F8640
M73 P2 R48
M73 Q2 S48
G1 X50.41 Y95.41 E-.01385
G1 X54.681 Y95.41 E-.98615
;WIPE_END
G1 Z.4 F720
G1 X198.337 Y95.9 F10800
G1 Z.2 F720
G1 E1 F2100
M204 S800
;TYPE:Solid infill
;WIDTH:0.420212
G1 F1200
G1 X198.93 Y96.493 E.02631
G1 X198.93 Y97.027 E.01675
G1 X197.973 Y96.07 E.04246
G1 X197.44 Y96.07 E.01672
G1 X198.93 Y97.56 E.06611
G1 X198.93 Y98.094 E.01675
G1 X196.906 Y96.07 E.0898
G1 X196.372 Y96.07 E.01675
G1 X198.93 Y98.628 E.11349
G1 X198.93 Y99.161 E.01672
G1 X195.839 Y96.07 E.13714
G1 X195.305 Y96.07 E.01675
G1 X198.93 Y99.695 E.16083
G1 X198.93 Y100.228 E.01672
G1 X194.772 Y96.07 E.18448
G1 X194.238 Y96.07 E.01675
G1 X198.93 Y100.762 E.20817
G1 X198.93 Y101.295 E.01672
G1 X193.705 Y96.07 E.23182
G1 X193.171 Y96.07 E.01675
G1 X198.93 Y101.829 E.25551
G1 X198.93 Y102.363 E.01675
G1 X192.637 Y96.07 E.2792
G1 X192.104 Y96.07 E.01672
G1 X198.93 Y102.896 E.30285
G1 X198.93 Y103.43 E.01675
G1 X191.57 Y96.07 E.32654
G1 X191.037 Y96.07 E.01672
G1 X198.93 Y103.963 E.35019
G1 X198.93 Y104.497 E.01675
G1 X190.503 Y96.07 E.37388
G1 X189.97 Y96.07 E.01672
G1 X198.93 Y105.03 E.39753
G1 X198.93 Y105.564 E.01675
G1 X189.436 Y96.07 E.42122
G1 X188.902 Y96.07 E.01675
G1 X198.93 Y106.098 E.44491
G1 X198.93 Y106.631 E.01672
G1 X188.369 Y96.07 E.46856
G1 X187.835 Y96.07 E.01675
G1 X198.93 Y107.165 E.49225
G1 X198.93 Y107.698 E.01672
G1 X187.302 Y96.07 E.5159
G1 X186.768 Y96.07 E.01675
G1 X198.93 Y108.232 E.53959
G1 X198.93 Y108.765 E.01672
G1 X186.235 Y96.07 E.56323
G1 X185.701 Y96.07 E.01675
G1 X198.93 Y109.299 E.58693
G1 X198.93 Y109.833 E.01675
G1 X185.167 Y96.07 E.61062
G1 X184.634 Y96.07 E.01672
G1 X198.93 Y110.366 E.63427
G1 X198.93 Y110.9 E.01675
G1 X184.1 Y96.07 E.65796
G1 X183.567 Y96.07 E.01672
G1 X198.93 Y111.433 E.6816
G1 X198.93 Y111.967 E.01675
G1 X183.033 Y96.07 E.7053
G1 X182.5 Y96.07 E.01672
G1 X198.93 Y112.5 E.72894
G1 X198.93 Y113.034 E.01675
M73 P2 R47
G1 X181.966 Y96.07 E.75264
G1 X181.432 Y96.07 E.01675
G1 X198.93 Y113.568 E.77633
G1 X198.93 Y113.93 E.01136
G1 X198.759 Y113.93 E.00536
G1 X180.899 Y96.07 E.79239
G1 X180.365 Y96.07 E.01675
G1 X198.226 Y113.93 E.79241
G1 X197.692 Y113.93 E.01675
G1 X180.042 Y96.28 E.78307
G1 X179.729 Y96.501 E.01202
G1 X197.158 Y113.93 E.77327
G1 X196.625 Y113.93 E.01672
G1 X179.417 Y96.722 E.76346
G1 X179.104 Y96.943 E.01202
M73 P3 R47
M73 Q3 S48
G1 X196.091 Y113.93 E.75366
G1 X195.558 Y113.93 E.01672
G1 X178.78 Y97.152 E.74438
G1 X178.445 Y97.351 E.01222
G1 X195.024 Y113.93 E.73555
G1 X194.491 Y113.93 E.01672
G1 X178.109 Y97.549 E.72679
G1 X177.774 Y97.747 E.01221
G1 X193.957 Y113.93 E.71799
G1 X193.423 Y113.93 E.01675
G1 X177.438 Y97.945 E.7092
G1 X177.096 Y98.136 E.01229
G1 X192.89 Y113.93 E.70073
G1 X192.356 Y113.93 E.01675
M73 Q3 S47
G1 X176.737 Y98.311 E.69296
G1 X176.378 Y98.485 E.01252
G1 X191.823 Y113.93 E.68524
G1 X191.289 Y113.93 E.01675
G1 X176.018 Y98.659 E.67752
G1 X175.659 Y98.834 E.01253
G1 X190.756 Y113.93 E.66978
G1 X190.222 Y113.93 E.01675
G1 X175.296 Y99.005 E.66219
G1 X174.912 Y99.154 E.01292
G1 X189.688 Y113.93 E.65556
G1 X189.155 Y113.93 E.01672
G1 X174.528 Y99.303 E.64895
G1 X174.143 Y99.452 E.01295
G1 X188.621 Y113.93 E.64234
G1 X188.088 Y113.93 E.01672
G1 X173.759 Y99.601 E.63573
G1 X173.368 Y99.744 E.01306
G1 X187.554 Y113.93 E.62939
G1 X187.021 Y113.93 E.01672
G1 X172.957 Y99.866 E.62397
G1 X172.545 Y99.989 E.01349
G1 X186.487 Y113.93 E.61854
G1 X185.953 Y113.93 E.01675
G1 X172.134 Y100.111 E.6131
G1 X171.723 Y100.233 E.01345
G1 X185.42 Y113.93 E.60769
G1 X184.886 Y113.93 E.01675
G1 X171.301 Y100.344 E.60274
G1 X170.859 Y100.437 E.01417
G1 X184.353 Y113.93 E.59866
G1 X183.819 Y113.93 E.01675
G1 X170.418 Y100.529 E.59456
G1 X169.976 Y100.621 E.01416
G1 X183.286 Y113.93 E.5905
G1 X182.752 Y113.93 E.01675
G1 X169.535 Y100.713 E.58639
G1 X169.065 Y100.777 E.01488
G1 X182.218 Y113.93 E.58355
G1 X181.685 Y113.93 E.01672
M73 P4 R47
M73 Q4 S47
G1 X168.59 Y100.836 E.58096
G1 X168.116 Y100.894 E.01498
G1 X181.151 Y113.93 E.57834
G1 X180.618 Y113.93 E.01672
G1 X167.641 Y100.953 E.57575
G1 X167.15 Y100.996 E.01546
G1 X179.469 Y113.315 E.54655
G1 X178.947 Y112.946 E.02005
G1 X178.018 Y112.397 E.03385
G1 X166.638 Y101.017 E.50489
G1 X166.125 Y101.038 E.01611
G1 X176.813 Y111.727 E.47421
G1 X175.777 Y111.223 E.03614
G1 X165.612 Y101.059 E.45096
G1 X165.09 Y101.07 E.01638
G1 X174.837 Y110.817 E.43244
G1 X173.966 Y110.48 E.0293
G1 X164.556 Y101.07 E.41749
G1 X164.022 Y101.07 E.01675
G1 X173.138 Y110.186 E.40445
G1 X172.381 Y109.962 E.02477
G1 X163.489 Y101.07 E.39451
G1 X162.955 Y101.07 E.01675
G1 X171.623 Y109.737 E.38455
G1 X170.93 Y109.578 E.02231
G1 X162.422 Y101.07 E.37747
G1 X161.888 Y101.07 E.01675
G1 X170.256 Y109.438 E.37126
G1 X169.582 Y109.298 E.0216
G1 X161.355 Y101.07 E.36503
G1 X160.821 Y101.07 E.01675
G1 X168.959 Y109.208 E.36106
G1 X168.35 Y109.133 E.01925
G1 X160.287 Y101.07 E.35773
G1 X159.754 Y101.07 E.01672
G1 X167.741 Y109.057 E.35436
G1 X167.155 Y109.005 E.01846
G1 X159.22 Y101.07 E.35205
G1 X158.687 Y101.07 E.01672
G1 X166.599 Y108.982 E.35103
G1 X166.042 Y108.959 E.01749
G1 X158.153 Y101.07 E.35001
G1 X157.62 Y101.07 E.01672
G1 X165.486 Y108.936 E.34899
G1 X164.946 Y108.93 E.01694
G1 X157.086 Y101.07 E.34872
G1 X156.552 Y101.07 E.01675
G1 X164.413 Y108.93 E.34874
G1 X163.879 Y108.93 E.01675
G1 X156.019 Y101.07 E.34872
G1 X155.485 Y101.07 E.01675
G1 X163.346 Y108.93 E.34874
G1 X162.812 Y108.93 E.01675
G1 X154.952 Y101.07 E.34872
G1 X154.418 Y101.07 E.01675
G1 X162.278 Y108.93 E.34872
G1 X161.745 Y108.93 E.01672
G1 X153.885 Y101.07 E.34872
G1 X153.351 Y101.07 E.01675
G1 X161.211 Y108.93 E.34872
G1 X160.678 Y108.93 E.01672
G1 X152.817 Y101.07 E.34874
G1 X152.284 Y101.07 E.01672
G1 X160.144 Y108.93 E.34872
G1 X159.611 Y108.93 E.01672
M73 P4 R46
G1 X151.75 Y101.07 E.34874
G1 X151.217 Y101.07 E.01672
G1 X159.077 Y108.93 E.34872
G1 X158.543 Y108.93 E.01675
G1 X150.683 Y101.07 E.34872
G1 X150.15 Y101.07 E.01672
G1 X158.01 Y108.93 E.34872
G1 X157.476 Y108.93 E.01675
G1 X149.616 Y101.07 E.34872
G1 X149.082 Y101.07 E.01675
G1 X156.943 Y108.93 E.34874
G1 X156.409 Y108.93 E.01675
G1 X148.549 Y101.07 E.34872
G1 X148.015 Y101.07 E.01675
G1 X155.876 Y108.93 E.34874
G1 X155.342 Y108.93 E.01675
G1 X147.482 Y101.07 E.34872
G1 X146.948 Y101.07 E.01675
G1 X154.808 Y108.93 E.34872
G1 X154.275 Y108.93 E.01672
G1 X146.415 Y101.07 E.34872
G1 X145.881 Y101.07 E.01675
G1 X153.741 Y108.93 E.34872
G1 X153.208 Y108.93 E.01672
G1 X145.347 Y101.07 E.34874
G1 X144.814 Y101.07 E.01672
M73 P5 R46
M73 Q5 S47
G1 X152.674 Y108.93 E.34872
G1 X152.141 Y108.93 E.01672
G1 X144.28 Y101.07 E.34874
G1 X143.747 Y101.07 E.01672
G1 X151.607 Y108.93 E.34872
G1 X151.073 Y108.93 E.01675
G1 X143.213 Y101.07 E.34872
G1 X142.68 Y101.07 E.01672
G1 X150.54 Y108.93 E.34872
G1 X150.006 Y108.93 E.01675
G1 X142.146 Y101.07 E.34872
G1 X141.612 Y101.07 E.01675
G1 X149.473 Y108.93 E.34874
G1 X148.939 Y108.93 E.01675
G1 X141.079 Y101.07 E.34872
G1 X140.545 Y101.07 E.01675
G1 X148.406 Y108.93 E.34874
G1 X147.872 Y108.93 E.01675
G1 X140.012 Y101.07 E.34872
G1 X139.478 Y101.07 E.01675
G1 X147.338 Y108.93 E.34872
G1 X146.805 Y108.93 E.01672
G1 X138.945 Y101.07 E.34872
G1 X138.411 Y101.07 E.01675
G1 X146.271 Y108.93 E.34872
G1 X145.738 Y108.93 E.01672
G1 X137.877 Y101.07 E.34874
G1 X137.344 Y101.07 E.01672
G1 X145.204 Y108.93 E.34872
G1 X144.671 Y108.93 E.01672
G1 X136.81 Y101.07 E.34874
G1 X136.277 Y101.07 E.01672
M73 Q5 S46
G1 X144.137 Y108.93 E.34872
G1 X143.603 Y108.93 E.01675
G1 X135.743 Y101.07 E.34872
G1 X135.21 Y101.07 E.01672
G1 X143.07 Y108.93 E.34872
G1 X142.536 Y108.93 E.01675
G1 X134.676 Y101.07 E.34872
G1 X134.142 Y101.07 E.01675
G1 X142.003 Y108.93 E.34874
G1 X141.469 Y108.93 E.01675
G1 X133.609 Y101.07 E.34872
G1 X133.075 Y101.07 E.01675
G1 X140.936 Y108.93 E.34874
G1 X140.402 Y108.93 E.01675
G1 X132.542 Y101.07 E.34872
G1 X132.008 Y101.07 E.01675
G1 X139.868 Y108.93 E.34872
G1 X139.335 Y108.93 E.01672
G1 X131.475 Y101.07 E.34872
G1 X130.941 Y101.07 E.01675
G1 X138.801 Y108.93 E.34872
G1 X138.268 Y108.93 E.01672
G1 X130.407 Y101.07 E.34874
G1 X129.874 Y101.07 E.01672
G1 X137.734 Y108.93 E.34872
G1 X137.201 Y108.93 E.01672
G1 X129.34 Y101.07 E.34874
G1 X128.807 Y101.07 E.01672
G1 X136.667 Y108.93 E.34872
G1 X136.133 Y108.93 E.01675
G1 X128.273 Y101.07 E.34872
G1 X127.74 Y101.07 E.01672
G1 X135.6 Y108.93 E.34872
G1 X135.066 Y108.93 E.01675
G1 X127.206 Y101.07 E.34872
G1 X126.672 Y101.07 E.01675
G1 X134.533 Y108.93 E.34874
G1 X133.999 Y108.93 E.01675
G1 X126.139 Y101.07 E.34872
G1 X125.605 Y101.07 E.01675
G1 X133.466 Y108.93 E.34874
G1 X132.932 Y108.93 E.01675
G1 X125.072 Y101.07 E.34872
G1 X124.538 Y101.07 E.01675
G1 X132.398 Y108.93 E.34872
G1 X131.865 Y108.93 E.01672
G1 X124.005 Y101.07 E.34872
G1 X123.471 Y101.07 E.01675
G1 X131.331 Y108.93 E.34872
G1 X130.798 Y108.93 E.01672
G1 X122.937 Y101.07 E.34874
G1 X122.404 Y101.07 E.01672
G1 X130.264 Y108.93 E.34872
G1 X129.731 Y108.93 E.01672
G1 X121.87 Y101.07 E.34874
G1 X121.337 Y101.07 E.01672
G1 X129.197 Y108.93 E.34872
G1 X128.663 Y108.93 E.01675
G1 X120.803 Y101.07 E.34872
G1 X120.27 Y101.07 E.01672
G1 X128.13 Y108.93 E.34872
G1 X127.596 Y108.93 E.01675
G1 X119.736 Y101.07 E.34872
G1 X119.202 Y101.07 E.01675
G1 X127.063 Y108.93 E.34874
G1 X126.529 Y108.93 E.01675
G1 X118.669 Y101.07 E.34872
G1 X118.135 Y101.07 E.01675
M73 P6 R46
M73 Q6 S46
G1 X125.996 Y108.93 E.34874
G1 X125.462 Y108.93 E.01675
G1 X117.602 Y101.07 E.34872
G1 X117.068 Y101.07 E.01675
G1 X124.928 Y108.93 E.34872
G1 X124.395 Y108.93 E.01672
G1 X116.535 Y101.07 E.34872
G1 X116.001 Y101.07 E.01675
G1 X123.861 Y108.93 E.34872
G1 X123.328 Y108.93 E.01672
G1 X115.467 Y101.07 E.34874
G1 X114.934 Y101.07 E.01672
G1 X122.794 Y108.93 E.34872
G1 X122.261 Y108.93 E.01672
G1 X114.4 Y101.07 E.34874
G1 X113.867 Y101.07 E.01672
G1 X121.727 Y108.93 E.34872
G1 X121.193 Y108.93 E.01675
G1 X113.333 Y101.07 E.34872
G1 X112.8 Y101.07 E.01672
G1 X120.66 Y108.93 E.34872
G1 X120.126 Y108.93 E.01675
G1 X112.266 Y101.07 E.34872
G1 X111.732 Y101.07 E.01675
G1 X119.593 Y108.93 E.34874
G1 X119.059 Y108.93 E.01675
G1 X111.199 Y101.07 E.34872
G1 X110.665 Y101.07 E.01675
G1 X118.526 Y108.93 E.34874
G1 X117.992 Y108.93 E.01675
G1 X110.132 Y101.07 E.34872
G1 X109.598 Y101.07 E.01675
G1 X117.458 Y108.93 E.34872
G1 X116.925 Y108.93 E.01672
G1 X109.065 Y101.07 E.34872
G1 X108.531 Y101.07 E.01675
G1 X116.391 Y108.93 E.34872
G1 X115.858 Y108.93 E.01672
G1 X107.997 Y101.07 E.34874
G1 X107.464 Y101.07 E.01672
G1 X115.324 Y108.93 E.34872
G1 X114.791 Y108.93 E.01672
G1 X106.93 Y101.07 E.34874
G1 X106.397 Y101.07 E.01672
G1 X114.257 Y108.93 E.34872
G1 X113.723 Y108.93 E.01675
G1 X105.863 Y101.07 E.34872
G1 X105.33 Y101.07 E.01672
G1 X113.19 Y108.93 E.34872
G1 X112.656 Y108.93 E.01675
G1 X104.796 Y101.07 E.34872
G1 X104.262 Y101.07 E.01675
G1 X112.123 Y108.93 E.34874
G1 X111.589 Y108.93 E.01675
G1 X103.729 Y101.07 E.34872
G1 X103.195 Y101.07 E.01675
G1 X111.056 Y108.93 E.34874
G1 X110.522 Y108.93 E.01675
G1 X102.662 Y101.07 E.34872
G1 X102.128 Y101.07 E.01675
G1 X109.988 Y108.93 E.34872
G1 X109.455 Y108.93 E.01672
G1 X101.595 Y101.07 E.34872
G1 X101.061 Y101.07 E.01675
G1 X108.921 Y108.93 E.34872
G1 X108.388 Y108.93 E.01672
G1 X100.527 Y101.07 E.34874
